!!!OTL: Der Musensohn.
!!!OTL-incipit: DURCH FELD UND WALD
!!!COM: C. F. Zelter
!!!ARE: Europa, Mitteleuropa, Deutschland
!!!SCT: F0519
!!!TXL: @@DE
!!!YEM: Copyright 1995, estate of Helmut Schaffrath.
**kern	**text
*ICvox	*
*clefG2	*
*M2/4	*
*k[b-]	*
*F:	*
!LO:TX:a:t=Heiter, doch nicht schnell.	!
{8cc	Durch
=1	=1
8cc	Feld
8a	und
8b-	Wald
8dd	ʒu
=2	=2
8ccL	ſchweiſen,
8ffJ	.
8ff}	.
{8cc	mein
=3	=3
8cc	Liedchen
8a	.
8b-	weg
8dd	ʒu
=4	=4
8ccL	pfeifen,
8ffJ	.
8ff}	.
{8a	ſo
=5	=5
8g	geht's
8cc	von
16eeL	Ort
16ddJ	.
16ccL	ʒu
16bJ	.
=6	=6
4cc	Ort!
8r}	.
{8cc	und
=7	=7
8b-/	nach
8a	dem
8g	Takte
8b-/	.
=8	=8
8a/L	re-
8ccJ	.
8a}	-get,
{8cc	und
=9	=9
8b-/	nach
8a	dem
8g	Maaß
8b-/	be-
=10	=10
8a/L	-we-
8ccJ	.
8a}	-get
{8cc	ſich
=11	=11
8dd	Al-
8dd	-les
8ee	an
8ee	mir
=12	=12
[2ff	fort.
=13	=13
2ff]	.
=13	=13
4.r}	.
==	==
!!!AGN: Studenten - Lied
!!!ONB: ESAC (Essen Associative Code) Database: FINK
!!!AMT: simple duple
!!!AIN: vox
!!!EED: Helmut Schaffrath
!!!EEV: 1.0
!!!GTL: Studentenlieder
!!Text: J. W. Goethe
!!!source: Musikalischer Hausschatz der Deutschen. Eine Sammlung von über 1000 Liedern und Gesängen mit Singstimmen und Klavierbegleitung. Leipzig, Litterarisches Verlags-Haus.
!!!page: 331
!!!URL-scan: https://www.digitale-sammlungen.de/en/view/bsb11144622?page=308
!!!ENC: Anna Maria Matuszewska
!!!EEV: 2024/08/01
*-	*-
